app/images/meteo/sereno.svg

<svg data-name="Layer 1" xmlns="http://www.w3.org/2000/svg" viewBox="0 0 48 48"><path d="M46 26h-4a2 2 0 0 1 0-4h4a2 2 0 0 1 0 4zm-7.86-13.31a2 2 0 1 1-2.83-2.83L38.14 7A2 2 0 1 1 41 9.86zM24 36a12 12 0 1 1 12-12 12 12 0 0 1-12 12zm0-20a8 8 0 1 0 8 8 8 8 0 0 0-8-8zm0-8a2 2 0 0 1-2-2V2a2 2 0 0 1 4 0v4a2 2 0 0 1-2 2zM9.86 12.69L7 9.86A2 2 0 0 1 9.86 7l2.83 2.83a2 2 0 1 1-2.83 2.86zM8 24a2 2 0 0 1-2 2H2a2 2 0 0 1 0-4h4a2 2 0 0 1 2 2zm1.86 11.31a2 2 0 0 1 2.83 2.83L9.86 41A2 2 0 1 1 7 38.14zM24 40a2 2 0 0 1 2 2v4a2 2 0 0 1-4 0v-4a2 2 0 0 1 2-2zm14.14-4.69L41 38.14A2 2 0 0 1 38.14 41l-2.83-2.83a2 2 0 0 1 2.83-2.86z" fill="#fff"/></svg>

<svg id="Layer_1" data-name="Layer 1" xmlns="http://www.w3.org/2000/svg" viewBox="0 0 48 48"><defs><style>.cls-1{fill:#fff;}</style></defs><title>sereno</title><path class="cls-1" d="M46,26H42a2,2,0,0,1,0-4h4A2,2,0,0,1,46,26ZM38.14,12.69a2,2,0,1,1-2.83-2.83L38.14,7A2,2,0,1,1,41,9.86ZM24,36A12,12,0,1,1,36,24,12,12,0,0,1,24,36Zm0-20a8,8,0,1,0,8,8A8,8,0,0,0,24,16Zm0-8a2,2,0,0,1-2-2V2a2,2,0,0,1,4,0V6A2,2,0,0,1,24,8ZM9.86,12.69L7,9.86A2,2,0,0,1,9.86,7l2.83,2.83a2,2,0,1,1-2.83,2.86h0ZM8,24a2,2,0,0,1-2,2H2a2,2,0,0,1,0-4H6A2,2,0,0,1,8,24ZM9.86,35.31a2,2,0,0,1,2.83,2.83h0L9.86,41A2,2,0,1,1,7,38.14ZM24,40a2,2,0,0,1,2,2v4a2,2,0,0,1-4,0V42A2,2,0,0,1,24,40Zm14.14-4.69L41,38.14A2,2,0,0,1,38.14,41l-2.83-2.83A2,2,0,0,1,38.14,35.31Z"/></svg>
